dist/svgs/table.svg

<svg xmlns="http://www.w3.org/2000/svg" viewBox="0 0 512 512"><path d="M461 49q21 0 36 15t15 36v307q0 21-15 36t-36 15H52q-22 0-37-15T0 407V100q0-21 15-36t37-15h409zM169 296H57v104h112V296zm0-141H57v104h112V155zm144 141H200v104h113V296zm0-141H200v104h113V155zm143 141H343v104h113V296zm0-141H343v104h113V155z"/></svg>

<?xml version="1.0" encoding="UTF-8" standalone="no"?><svg   xmlns:svg="http://www.w3.org/2000/svg"   xmlns="http://www.w3.org/2000/svg"   version="1.1"   width="512"   height="512"   viewBox="0 0 512 512">  <path     d="M461 49Q482 49 497 64T512 100V407Q512 428 497 443T461 458H52Q30 458 15 443T0 407V100Q0 79 15 64T52 49H461zM169 296H57V400H169V296zM169 155H57V259H169V155zM313 296H200V400H313V296zM313 155H200V259H313V155zM456 296H343V400H456V296zM456 155H343V259H456V155z"     id="table" /></svg>
